icons/folder_type_git_opened.svg

<svg xmlns="http://www.w3.org/2000/svg" viewBox="0 0 32 32"><path d="M27.4 5.5h-9.2l-2.1 4.2H4.3v16.8h25.2v-21Zm0 18.7H6.6V11.8h20.8Zm0-14.5h-8.2l1-2.1h7.1v2.1Z" style="fill:#db847b"/><path d="M25.7 13.7H.5l3.8 12.8h25.2l-3.8-12.8z" style="fill:#db847b"/><path d="M30.6 19.565 21.435 10.4a1.352 1.352 0 0 0-1.913 0l-1.9 1.9 2.415 2.415a1.606 1.606 0 0 1 2.034 2.047l2.329 2.329a1.607 1.607 0 1 1-.964.907l-2.176-2.171v5.713a1.606 1.606 0 1 1-1.323-.047v-5.766a1.61 1.61 0 0 1-.873-2.11l-2.381-2.381-6.283 6.286a1.353 1.353 0 0 0 0 1.913l9.165 9.165a1.353 1.353 0 0 0 1.913 0l9.122-9.122a1.353 1.353 0 0 0 0-1.913" style="fill:#dd4c35"/><path d="m17.619 12.3 2.415 2.415a1.606 1.606 0 0 1 2.034 2.047l2.332 2.329a1.607 1.607 0 1 1-.964.907l-2.176-2.171v5.713a1.606 1.606 0 1 1-1.323-.047v-5.766a1.61 1.61 0 0 1-.873-2.11l-2.381-2.381" style="fill:#fff"/></svg>

<svg xmlns="http://www.w3.org/2000/svg" viewBox="0 0 32 32"><title>folder_type_git_opened</title><path d="M27.4,5.5H18.2L16.1,9.7H4.3V26.5H29.5V5.5Zm0,18.7H6.6V11.8H27.4Zm0-14.5H19.2l1-2.1h7.1V9.7Z" style="fill:#db847b"/><polygon points="25.7 13.7 0.5 13.7 4.3 26.5 29.5 26.5 25.7 13.7" style="fill:#db847b"/><path d="M30.6,19.565,21.435,10.4a1.352,1.352,0,0,0-1.913,0l-1.9,1.9,2.415,2.415a1.606,1.606,0,0,1,2.034,2.047L24.4,19.091a1.607,1.607,0,1,1-.964.907L21.26,17.827V23.54a1.606,1.606,0,1,1-1.323-.047V17.727a1.61,1.61,0,0,1-.873-2.11l-2.381-2.381L10.4,19.522a1.353,1.353,0,0,0,0,1.913L19.565,30.6a1.353,1.353,0,0,0,1.913,0L30.6,21.478a1.353,1.353,0,0,0,0-1.913" style="fill:#dd4c35"/><path d="M17.619,12.3l2.415,2.415a1.606,1.606,0,0,1,2.034,2.047L24.4,19.091a1.607,1.607,0,1,1-.964.907L21.26,17.827V23.54a1.606,1.606,0,1,1-1.323-.047V17.727a1.61,1.61,0,0,1-.873-2.11l-2.381-2.381" style="fill:#fff"/></svg>
